foodtherapy/img/categori/succesfull.svg

<svg width="127" height="156" viewBox="0 0 127 156" fill="none" xmlns="http://www.w3.org/2000/svg">
<path d="M63.2267 0.520738C62.6922 0.571242 62.1909 0.801573 61.8056 1.17376L52.1856 10.8058L41.0898 6.07138C40.8029 5.94797 40.4943 5.88247 40.1818 5.87869C39.8694 5.8749 39.5592 5.93285 39.2694 6.04927C38.9796 6.16569 38.7159 6.33826 38.4936 6.55689C38.2713 6.77553 38.0947 7.03594 37.9742 7.323L33.1642 18.4243H20.374C19.7516 18.4272 19.1554 18.6747 18.7153 19.1129C18.2752 19.5511 18.0266 20.1446 18.0237 20.7643V33.4981L6.87322 38.2869C6.3044 38.5295 5.85399 38.9848 5.61888 39.5548C5.38377 40.1247 5.38276 40.7636 5.61606 41.3343L10.3714 52.4356L0.696744 62.0132C0.462727 62.2447 0.280051 62.5225 0.160491 62.8287C0.0409307 63.1349 -0.0128592 63.4626 0.00259028 63.7908C0.0180397 64.1189 0.102384 64.4402 0.250187 64.7338C0.397991 65.0275 0.605972 65.2871 0.860721 65.4959L10.3714 73.3321L5.5614 86.1204C5.348 86.6913 5.3655 87.3223 5.6102 87.8807C5.8549 88.439 6.3077 88.8809 6.87322 89.1135L18.0237 93.9023V102.391L0.36879 132.267C0.159818 132.623 0.0485736 133.027 0.0462184 133.44C0.0438633 133.852 0.15048 134.258 0.355372 134.616C0.560264 134.975 0.856221 135.273 1.21355 135.481C1.57088 135.69 1.977 135.801 2.39118 135.804H24.4734L36.3344 154.415C36.5538 154.757 36.858 155.036 37.2178 155.226C37.5775 155.416 37.9804 155.51 38.3875 155.499C38.7945 155.488 39.1918 155.373 39.5408 155.164C39.8898 154.955 40.1786 154.66 40.3792 154.307L58.854 122.636L61.6963 126.01C61.9179 126.271 62.1942 126.481 62.5057 126.625C62.8172 126.769 63.1565 126.843 63.5 126.843C63.8435 126.843 64.1828 126.769 64.4943 126.625C64.8058 126.481 65.0821 126.271 65.3037 126.01L68.146 122.636L86.6208 154.307C86.8214 154.66 87.1102 154.955 87.4592 155.164C87.8082 155.373 88.2055 155.488 88.6125 155.499C89.0196 155.51 89.4225 155.416 89.7822 155.226C90.142 155.036 90.4462 154.757 90.6656 154.415L102.527 135.804H124.609C125.023 135.801 125.429 135.69 125.786 135.481C126.144 135.273 126.44 134.975 126.645 134.616C126.85 134.258 126.956 133.852 126.954 133.44C126.951 133.027 126.84 132.623 126.631 132.267L108.976 102.391V93.9023L120.127 89.1135C120.692 88.8809 121.145 88.439 121.39 87.8807C121.634 87.3223 121.652 86.6913 121.439 86.1204L116.629 73.3321L126.139 65.4959C126.394 65.2871 126.602 65.0275 126.75 64.7338C126.898 64.4402 126.982 64.1189 126.997 63.7908C127.013 63.4626 126.959 63.1349 126.84 62.8287C126.72 62.5225 126.537 62.2447 126.303 62.0132L116.629 52.4356L121.384 41.3343C121.617 40.7636 121.616 40.1247 121.381 39.5548C121.146 38.9848 120.696 38.5295 120.127 38.2869L108.976 33.4981V20.7643C108.973 20.1446 108.725 19.5511 108.285 19.1129C107.845 18.6747 107.248 18.4272 106.626 18.4243H93.8358L89.0258 7.323C88.9053 7.03594 88.7287 6.77553 88.5064 6.55689C88.2841 6.33826 88.0204 6.16569 87.7306 6.04927C87.4408 5.93285 87.1307 5.8749 86.8182 5.87869C86.5057 5.88247 86.1971 5.94797 85.9102 6.07138L74.8144 10.8058L65.1944 1.17376C64.938 0.922991 64.6274 0.733813 64.2864 0.620647C63.9454 0.50748 63.583 0.473313 63.2267 0.520738ZM63.5 6.23464L72.6281 15.268C72.9602 15.5926 73.3812 15.8122 73.8382 15.8994C74.2953 15.9865 74.768 15.9373 75.197 15.7578L85.6369 11.2955L90.0643 21.6894C90.2489 22.1129 90.5547 22.4729 90.9435 22.7245C91.3324 22.9761 91.787 23.1082 92.2507 23.1042H104.276V35.0762C104.282 35.5286 104.42 35.9694 104.672 36.3459C104.924 36.7223 105.28 37.0184 105.697 37.1985L116.137 41.6608L111.655 52.0546C111.474 52.4818 111.425 52.9524 111.512 53.4074C111.6 53.8625 111.821 54.2817 112.147 54.6123L121.111 63.5369L112.311 70.8289C111.936 71.1384 111.667 71.5554 111.54 72.0229C111.413 72.4904 111.434 72.9857 111.6 73.4409L116.191 85.6307L105.697 90.1473C105.271 90.3311 104.91 90.6356 104.657 91.0227C104.404 91.4098 104.272 91.8624 104.276 92.324V102.936C104.259 103.098 104.259 103.263 104.276 103.425V104.296H92.2507C91.787 104.292 91.3324 104.424 90.9435 104.676C90.5547 104.927 90.2489 105.287 90.0643 105.711L85.5823 116.159L73.3386 111.588C72.8743 111.41 72.3653 111.383 71.8843 111.51C71.4033 111.637 70.975 111.912 70.6603 112.296L63.5 120.839L56.3397 112.296C56.025 111.912 55.5967 111.637 55.1157 111.51C54.6347 111.383 54.1257 111.41 53.6614 111.588L41.4177 116.159L36.9357 105.711C36.7511 105.287 36.4453 104.927 36.0565 104.676C35.6677 104.424 35.213 104.292 34.7493 104.296H22.7243V103.371C22.7602 103.137 22.7602 102.898 22.7243 102.663V92.324C22.7283 91.8624 22.5956 91.4098 22.3429 91.0227C22.0902 90.6356 21.7286 90.3311 21.3032 90.1473L10.8087 85.6307L15.4 73.4409C15.5663 72.9857 15.5873 72.4904 15.4601 72.0229C15.3329 71.5554 15.0637 71.1384 14.6895 70.8289L5.88935 63.5369L14.8534 54.6123C15.1794 54.2817 15.4 53.8625 15.4876 53.4074C15.5751 52.9524 15.5256 52.4818 15.3454 52.0546L10.8633 41.6608L21.3032 37.1985C21.7201 37.0184 22.0759 36.7223 22.328 36.3459C22.5801 35.9694 22.7177 35.5286 22.7243 35.0762V23.1042H34.7493C35.213 23.1082 35.6677 22.9761 36.0565 22.7245C36.4453 22.4729 36.7511 22.1129 36.9357 21.6894L41.3631 11.2955L51.803 15.7578C52.232 15.9373 52.7047 15.9865 53.1618 15.8994C53.6188 15.8122 54.0398 15.5926 54.3719 15.268L63.5 6.23464ZM19.6634 108.867C19.8934 108.939 20.133 108.975 20.374 108.975H33.1642L37.9742 120.076C38.2179 120.63 38.666 121.068 39.2258 121.301C39.7855 121.534 40.4138 121.544 40.9805 121.328L53.7707 116.594L55.5744 118.77L38.2475 148.591L27.753 132.212C27.5369 131.874 27.2377 131.596 26.8838 131.406C26.5299 131.215 26.1329 131.118 25.7306 131.123H6.4906L19.6634 108.867ZM107.337 108.867L120.509 131.124H101.269C100.867 131.119 100.47 131.216 100.116 131.407C99.7623 131.597 99.4631 131.875 99.247 132.212L88.7525 148.592L71.4256 118.771L73.2293 116.594L86.0195 121.329C86.5862 121.545 87.2145 121.535 87.7742 121.302C88.334 121.069 88.7821 120.63 89.0258 120.077L93.8358 108.976H106.626C106.867 108.976 107.107 108.939 107.337 108.867Z" fill="#008B77"/>
<path d="M49.7841 62.8731L58.1364 71.6493L79.2159 49.5L82 52.4254L58.1364 77.5L47 65.7985L49.7841 62.8731Z" fill="#008B77"/>
</svg>

<svg width="127" height="156" fill="none" xmlns="http://www.w3.org/2000/svg"><path d="M63.227.52a2.369 2.369 0 00-1.421.654l-9.62 9.632L41.09 6.07a2.37 2.37 0 00-2.596.486 2.351 2.351 0 00-.52.766l-4.81 11.101h-12.79a2.367 2.367 0 00-1.659.689 2.346 2.346 0 00-.691 1.651v12.734l-11.15 4.789a2.356 2.356 0 00-1.255 1.268 2.341 2.341 0 00-.003 1.78l4.755 11.1-9.674 9.578a2.349 2.349 0 00-.447 2.72c.148.294.356.554.61.763l9.511 7.836-4.81 12.788a2.342 2.342 0 00.05 1.76c.244.559.697 1 1.262 1.234l11.15 4.788v8.489L.37 132.267a2.342 2.342 0 00.845 3.214c.357.209.763.32 1.177.323h22.082l11.861 18.611a2.356 2.356 0 002.053 1.084 2.369 2.369 0 001.992-1.192l18.475-31.671 2.842 3.374a2.362 2.362 0 001.804.833 2.37 2.37 0 001.804-.833l2.842-3.374 18.475 31.671a2.356 2.356 0 001.992 1.192 2.367 2.367 0 002.053-1.084l11.861-18.611h22.082a2.363 2.363 0 002.036-1.188 2.344 2.344 0 00-.014-2.349l-17.655-29.876v-8.489l11.151-4.788a2.347 2.347 0 001.312-2.993l-4.81-12.789 9.51-7.836a2.354 2.354 0 00.858-1.705 2.341 2.341 0 00-.694-1.778l-9.674-9.577 4.755-11.102c.233-.57.232-1.21-.003-1.78a2.354 2.354 0 00-1.254-1.267l-11.151-4.789V20.764a2.346 2.346 0 00-.691-1.651 2.368 2.368 0 00-1.659-.689h-12.79l-4.81-11.101a2.351 2.351 0 00-1.295-1.274 2.37 2.37 0 00-1.82.022l-11.097 4.735-9.62-9.632A2.363 2.363 0 0063.227.52zm.273 5.715l9.128 9.033a2.365 2.365 0 002.569.49l10.44-4.462 4.427 10.393a2.37 2.37 0 002.186 1.415h12.026v11.972c.006.453.144.893.396 1.27.252.376.608.672 1.025.853l10.44 4.462-4.482 10.394a2.34 2.34 0 00.492 2.557l8.964 8.925-8.8 7.292a2.345 2.345 0 00-.711 2.612l4.591 12.19-10.494 4.516a2.358 2.358 0 00-1.04.876 2.34 2.34 0 00-.381 1.301v10.612a2.35 2.35 0 000 .489v.871H92.251a2.366 2.366 0 00-2.187 1.415l-4.482 10.448-12.243-4.571a2.372 2.372 0 00-2.679.708l-7.16 8.543-7.16-8.543a2.372 2.372 0 00-2.678-.708l-12.244 4.571-4.482-10.448a2.366 2.366 0 00-2.186-1.415H22.723v-.925a2.34 2.34 0 000-.708V92.324a2.343 2.343 0 00-1.42-2.177l-10.495-4.516L15.4 73.44a2.34 2.34 0 00-.71-2.612l-8.8-7.292 8.963-8.925a2.348 2.348 0 00.492-2.557L10.863 41.66l10.44-4.462a2.343 2.343 0 001.421-2.122V23.103H34.75a2.369 2.369 0 002.187-1.415l4.427-10.393 10.44 4.462a2.371 2.371 0 002.569-.49L63.5 6.235zM19.663 108.867c.23.072.47.108.711.108h12.79l4.81 11.101a2.37 2.37 0 003.006 1.252l12.79-4.734 1.804 2.176-17.326 29.821-10.495-16.379a2.366 2.366 0 00-2.022-1.089H6.49l13.172-22.256zm87.674 0l13.172 22.257h-19.24a2.366 2.366 0 00-2.022 1.088l-10.495 16.38-17.326-29.821 1.803-2.177 12.79 4.735a2.37 2.37 0 001.755-.027 2.357 2.357 0 001.252-1.225l4.81-11.101h12.79c.241 0 .481-.037.711-.109z" fill="#008B77"/><path d="M49.784 62.873l8.352 8.776L79.216 49.5 82 52.425 58.136 77.5 47 65.799l2.784-2.926z" fill="#008B77"/></svg>
